symbolic/mimes/x-office-math-symbolic.svg

<svg width="16" height="16" version="1.1" xmlns="http://www.w3.org/2000/svg">
 <path d="m4 8v5h8v-5zm1 1h2v0.996h-2zm3 0h3v0.996h-3zm-3 1.996h2v1.004h-2zm3 0h3v1.004h-3z" fill="gray"/>
 <path d="m4 0c-1.662 0-3 1.338-3 3v10c0 1.662 1.338 3 3 3h8c1.662 0 3-1.338 3-3v-9l-4-4zm0 1h6v2c0 1.108 0.892 2 2 2h2v8c0 1.108-0.892 2-2 2h-8c-1.108 0-2-0.892-2-2v-10c0-1.108 0.892-2 2-2z" fill="gray"/>
</svg>

<svg xmlns="http://www.w3.org/2000/svg" width="16" height="16"><path fill="gray" d="M4 8v5h8V8zm1 1h2v.996H5zm3 0h3v.996H8zm-3 1.996h2V12H5zm3 0h3V12H8z"/><path fill="gray" d="M4 0C2.338 0 1 1.338 1 3v10c0 1.662 1.338 3 3 3h8c1.662 0 3-1.338 3-3V4l-4-4zm0 1h6v2c0 1.108.892 2 2 2h2v8c0 1.108-.892 2-2 2H4c-1.108 0-2-.892-2-2V3c0-1.108.892-2 2-2"/></svg>
